X:201
T:Boganuadh, The
T:The New Bob
B:Gow's Repository, Bk 1
Z:Nigel Gatherer
M:4/4
L:1/8
K:Bm
f |: Bcde f2 ea | c<AeA aAec | Bcde faea | c<Aa>c B/B/B f2 :|
     B/B/B b^a bBbf| =a>baf defd | efab faea | c<Aa>c B/B/B f2 :|
<end>
<start>
